!!!OTL: HIER UNTEN IM SCHATTE
!!!ARE: Europa, Mitteleuropa, Schweiz
!!!SCT: E0684
!!!YEM: Copyright 1995, estate of Helmut Schaffrath.
**kern
*ICvox
*Ivox
*M2/4
*k[]
*C:
{8G
=1
8c
16B
16A
8G
16E
16G
=2
8A
16G
16F
8E}
{16E
16G
=3
16G
16F
16F
16E
8F
16D
16A
=4
16G
16A
16G
16F
8E}
{16G
16G
=5
16G
16c
16c
16c
16c
16e}
{16d
16c
=6
16B
16d
16d
16d
16d
16f
16e
16d
=7
8e
8d
8c}
==
!!!AGN: Liebes - Lied, Leid, Klage
!!!ONB: ESAC (Essen Associative Code) Database: ERK2
!!!AMT: simple duple
!!!AIN: vox
!!!EED: Helmut Schaffrath
!!!EEV: 1.0
*-
